X:209
T:Valse du coq
N:répertoire de Joseph Allard
S:Laurence Beaudry
Z:robin.beech@mcgill.ca
M:3/4
L:1/8
K:D
A |:d3c de | f2d2 FG| A2B2F2 | A2GFE2 | e3d e2f2|
gf ed cB |1 A2B2G2 | G2F2- FA :|2 A2B2c2 | d6 |:
fgf2d2 | fgf2d2 | fga2g2 | f2e4 | efe2c2 |
efe2c2 | efg2f2 |1 e2f4 :|2 e2d4 :|
